X:1
T:Standin In The Need of Prayer
T:What Kind Of Shoes Are You Going To Wear
T:Copyright 1918 by Homer A. Rodeheaver
T:Rodeheaver's Plantation Melodies
T:Rodeheaver's Plantation Melodies
Z:Rodeheaver's Plantation Melodies
%%score [ 1 2 3 4 ]
L:1/8
Q:1/4=80
M:2/4
K:Ab
V:1 treble nm="Soprano" snm="S."
V:2 treble nm="Alto" snm="A."
V:3 bass nm="Tenor" snm="T."
V:4 bass nm="Bass" snm="B."
V:1
 c/cc/ c/>c/B/>B/ | c2 z2 | c/cc/ c/>c/B/>B/ | c2 z2 | c->c B/-B/B | A>A E>E | FF/>F/ G/G/G | A4 | %8
w: What kind of shoes you going to|wear?|what kind of shoes you going to|wear?|||||
"^CHORUS" E4 | F4 | GG/G/ GG | AB cA | E4 | F3 F/F/ | GG G>G | A4!D.C.! |] %16
w: Yes,|yes,|||Yes,|yes, * *|||
V:2
 z4 | z/ E-E/ E-<E | z4 | z/ E-E/ E-<E | E->E E/-E/E | F>F E>E | DD/>D/ E/E/E | E4 | C4 | DF F2 | %10
w: |Gold- en slip- pers!||Gold- en slip- pers!|Gold- en slip- pers I'm|bound to wear, That|out- shines the glit- ter- ing|sun.|Yes,|yes, my Lord,|
 EE/E/ EE | EE E2 | C2 E2 | DF FF/F/ | EE E>E | E4 |] %16
w: I'm going to join the|heav'n- ly choir;|Yes, yes,|yes, my Lord, I'm a|sol- dier of the|cross.|
V:3
 z4 | z/ A,-A,/ A,-<A, | z4 | z/ A,-A,/ A,-<A, | A,->A, B,/-B,/B, | C>C A,>A, | A,A,/>A,/ D/D/D | %7
 C4 | A,4 | A,D D2 | DD/D/ DD | CD EC | A,2 C2 | DD DD/D/ | DD D>D | C4 |] %16
V:4
 z4 | z/ A,,-A,,/ A,,-<A,, | z4 | z/ A,,-A,,/ A,,-<A,, | A,->A, G,/-G,/G, | F,>F, C,>C, | %6
 D,D,/>D,/ E,/E,/E, | A,4 | A,,4 | D,D, D,2 | E,E,/E,/ E,E, | A,,A,, A,,2 | A,,2 A,,2 | %13
 D,D, D,D,/D,/ | E,E, E,>E, | A,,4 |] %16

